svg/filled/grid.svg

<svg width="24" height="24" viewBox="0 0 24 24" fill="none" xmlns="http://www.w3.org/2000/svg">
<path d="M5 10.2V5.8C5 5.35817 5.35817 5 5.8 5H10.2C10.6418 5 11 5.35817 11 5.8V10.2C11 10.6418 10.6418 11 10.2 11H5.8C5.35817 11 5 10.6418 5 10.2Z" fill="black"/>
<path d="M13 10.2V5.8C13 5.35817 13.3582 5 13.8 5H18.2C18.6418 5 19 5.35817 19 5.8V10.2C19 10.6418 18.6418 11 18.2 11H13.8C13.3582 11 13 10.6418 13 10.2Z" fill="black"/>
<path d="M13 18.2V13.8C13 13.3582 13.3582 13 13.8 13H18.2C18.6418 13 19 13.3582 19 13.8V18.2C19 18.6418 18.6418 19 18.2 19H13.8C13.3582 19 13 18.6418 13 18.2Z" fill="black"/>
<path d="M5 18.2V13.8C5 13.3582 5.35817 13 5.8 13H10.2C10.6418 13 11 13.3582 11 13.8V18.2C11 18.6418 10.6418 19 10.2 19H5.8C5.35817 19 5 18.6418 5 18.2Z" fill="black"/>
</svg>

<svg xmlns="http://www.w3.org/2000/svg" viewBox="0 0 24 24" fill="currentColor">
  <path d="M5 10.2V5.8a.8.8 0 01.8-.8h4.4a.8.8 0 01.8.8v4.4a.8.8 0 01-.8.8H5.8a.8.8 0 01-.8-.8zM13 10.2V5.8a.8.8 0 01.8-.8h4.4a.8.8 0 01.8.8v4.4a.8.8 0 01-.8.8h-4.4a.8.8 0 01-.8-.8zM13 18.2v-4.4a.8.8 0 01.8-.8h4.4a.8.8 0 01.8.8v4.4a.8.8 0 01-.8.8h-4.4a.8.8 0 01-.8-.8zM5 18.2v-4.4a.8.8 0 01.8-.8h4.4a.8.8 0 01.8.8v4.4a.8.8 0 01-.8.8H5.8a.8.8 0 01-.8-.8z"/>
</svg>
